X:1
T:Title
%%score { ( 1 3 ) | ( 2 4 ) }
L:1/8
M:4/4
K:Ab
V:1 treble nm="Grand Piano"
V:3 treble 
V:2 bass 
V:4 bass 
V:1
 z4 z2[Q:1/4=96] [CE]2 | [Cc]3 [CB] BA .[DG]2 | [CE-]4 E2[K:treble] z2 | [Dd]3 [Ec] .[Fc]2 FB | %4
[M:3/4] B6 |[M:1/4] E2 |[M:4/4] [Cc]3 [CB] BAGA | [CE]2 [E_G]2 F2 [Fd]2 | c3 A cB[CEA][DG] | %9
[M:3/4] [A,CA]6 |[M:1/4] c2 |[M:4/4] e6 z2 | B6 z2 | d6 z2 |[M:3/4] c6 |[M:1/4] c2 |[M:4/4] e6 z2 | %17
 z2 E2 D2 [Fd]2 | c3 A cB[CEA][DG] |[M:7/8] A-A-A- A- A3 |] %20
V:2
 z4 z2 [A,,A,]2 | [A,,E,]3 [A,,E,] [A,,F,]2 z A | A,,2 =A,,2 [B,,G,]2 [C,A,]2 | %3
 [F,A,]3 [E,A,] z[K:treble] B[K:bass] B,,2 |[M:3/4] [E,G,E]6 |[M:1/4] [E,G,D]2 | %6
[M:4/4] [A,,A,]3 [A,,E,] [A,,F,]2 [A,,=E,]2 | z2 A,4 z2 | [E,A,E]3 [E,CE] ED z B, |[M:3/4] A,,6 | %10
[M:1/4][K:treble] [A,E]2 |[M:4/4] [A,CA]2 [A,C]2 [A,C][A,E][K:bass][G,B,E][F,B,=D] | %12
 [E,G,E]2 [=D,A,]2 [E,G,]2 [E,A,E]2 | [E,B,]2 [E,B,]2 [E,B,][D,B,][C,A,][E,G,E] | %14
[M:3/4] [A,E]2 [E,C]2 [A,,A,]2 |[M:1/4][K:treble] [A,E]2 | %16
[M:4/4] [A,CA]2[K:bass] [A,C]2 [A,C][A,,A,][B,,G,][C,A,] | [D,A,]2 [C,=A,]2 [B,,B,]2 [D,_A,]2 | %18
 [E,A,E]3 [E,CE] ED z B, |[M:7/8] z2 F,2 E,3 |] %20
V:3
 x8 | z4 D2 z2 | E,2 _G,2 D2[K:treble] [EA]2 | z4 z2 [A,=D]2 |[M:3/4] x6 |[M:1/4] x2 | %6
[M:4/4] z4 D2 D2 | x8 | x8 |[M:3/4] x6 |[M:1/4] x2 |[M:4/4] z2 A2 AcBA | z2 F2 E2 c2 | %13
 G2 G2 G[EG][EA]B |[M:3/4] z2 A2 E2 |[M:1/4] x2 |[M:4/4] z2 A2 A[Ec][EB][EA] | F6 z2 | x8 | %19
[M:7/8] [A,C]2 D2 C3 |] %20
V:4
 x8 | z4 z2 [A,,=E,]2 | x8 | z4 [=D,A,]2[K:treble][K:bass] z2 |[M:3/4] x6 |[M:1/4] x2 |[M:4/4] x8 | %7
 [A,,E,]2 C,2 [D,D]2 [B,,A,]2 | z4 E,2 E,2 |[M:3/4] x6 |[M:1/4][K:treble] x2 | %11
[M:4/4] x6[K:bass] x2 | x8 | x8 |[M:3/4] x6 |[M:1/4][K:treble] x2 |[M:4/4] x2[K:bass] x6 | x8 | %18
 z4 E,2 E,2 |[M:7/8] A,,-A,,-A,,- A,,- A,,3 |] %20

